X: 181
T: P&O Polka
R: polka
M: 2/4
L: 1/8
K: Emin
D/|B,E EF|GA/2G/2 FE|A,D DE|FG/2F/2 ED|B,E EF|GA/2G/2 FA|GB Ad|e2 e:|
f/|ge fd|ed BA|Fd de|fg/2f/2 ef|ge (3fed|ed BA|GB Ad|e2 e2 :|

